; generated by PrusaSlicer 2.7.1+MacOS-arm64 on 2024-02-06 at 17:37:51 UTC

; 

; external perimeters extrusion width = 0.42mm
; perimeters extrusion width = 0.44mm
; infill extrusion width = 0.44mm
; solid infill extrusion width = 0.44mm
; top infill extrusion width = 0.40mm
; support material extrusion width = 0.36mm
; first layer extrusion width = 0.42mm

M201 X500 Y500 Z100 E5000 ; sets maximum accelerations, mm/sec^2
M203 X500 Y500 Z10 E60 ; sets maximum feedrates, mm / sec
M204 S500 T1000 ; sets acceleration (S) and retract acceleration (R), mm/sec^2
M205 X8.00 Y8.00 Z0.40 E5.00 ; sets the jerk limits, mm/sec
M205 S0 T0 ; sets the minimum extruding and travel feed rate, mm/sec

; printing object __raspi_module_1_01-vented_top.stl id:0 copy 0
; stop printing object __raspi_module_1_01-vented_top.stl id:0 copy 0

;TYPE:Custom
G90 ; use absolute coordinates
M83 ; extruder relative mode
M104 S150 ; set temporary nozzle temp to prevent oozing during homing
M140 S60 ; set final bed temp
G4 S30 ; allow partial nozzle warmup
G28 ; home all axis and restore leveling
G1 Z50 F240
G1 X2.0 Y10 F3000
M104 S210 ; set final nozzle temp
M190 S60 ; wait for bed temp to stabilize
M109 S210 ; wait for nozzle temp to stabilize
G1 Z0.28 F240
G92 E0
G1 X2.0 Y140 E10 F1500 ; prime the nozzle
G1 X2.3 Y140 F5000
G92 E0
G1 X2.3 Y10 E10 F1200 ; prime the nozzle
G92 E0
G21 ; set units to millimeters
G90 ; use absolute coordinates
M83 ; use relative distances for extrusion
; Filament gcode
M107
;LAYER_CHANGE
;Z:0.2
;HEIGHT:0.2
;BEFORE_LAYER_CHANGE
G92 E0
;0.2


G1 E-.8 F1800
G1 Z.2 F9000
;AFTER_LAYER_CHANGE
;0.2
G1 X76.639 Y73.013
G1 Z.2
G1 E.8 F1800
M204 S500
;TYPE:Skirt/Brim
;WIDTH:0.42
G1 F1200
G1 X77.468 Y72.164 E.03721
G1 X78.382 Y71.407 E.03721
G1 X79.369 Y70.749 E.03719
G1 X80.42 Y70.198 E.03721
G1 X81.523 Y69.761 E.0372
G1 X82.921 Y69.386 E.04538
G1 X84.095 Y69.214 E.0372
G1 X135.001 Y69.166 E1.59612
G1 X137.079 Y69.386 E.06552
G1 X138.228 Y69.68 E.03719
G1 X139.177 Y70.024 E.03165
G1 X140.781 Y70.842 E.05645
G1 X141.618 Y71.407 E.03166
G1 X142.532 Y72.164 E.03721
G1 X143.835 Y73.591 E.06059
G1 X144.816 Y75.101 E.05646
G1 X145.258 Y76.009 E.03166
G1 X145.67 Y77.122 E.03721
G1 X146.109 Y79.185 E.06613
G1 X146.185 Y80.437 E.03933
G1 X146.18 Y139.782 E1.86072
G1 X145.996 Y141.555 E.05589
G1 X145.589 Y143.127 E.05091
G1 X145.075 Y144.389 E.04273
G1 X144.097 Y146.056 E.0606
G1 X143.186 Y147.182 E.04541
G1 X142.337 Y148.011 E.03721
G1 X141.407 Y148.747 E.03719
G1 X140.249 Y149.466 E.04274
G1 X139.177 Y149.976 E.03722
G1 X138.059 Y150.371 E.03718
G1 X136.905 Y150.646 E.0372
G1 X135.22 Y150.827 E.05314
G1 X84.868 Y150.83 E1.57875
G1 X83.095 Y150.646 E.05589
G1 X81.523 Y150.239 E.05091
G1 X79.923 Y149.553 E.05458
G1 X78.593 Y148.747 E.04876
G1 X77.468 Y147.836 E.04539
G1 X76.639 Y146.987 E.03721
G1 X75.903 Y146.056 E.03721
G1 X75.184 Y144.899 E.04271
G1 X74.674 Y143.827 E.03722
G1 X74.132 Y142.157 E.05505
G1 X73.891 Y140.815 E.04275
G1 X73.82 Y139.782 E.03247
G1 X73.82 Y80.218 E1.86759
G1 X74.004 Y78.445 E.05589
G1 X74.411 Y76.873 E.05091
G1 X75.184 Y75.102 E.06059
G1 X75.903 Y73.944 E.04274
G1 X76.602 Y73.06 E.03534
;WIPE_START
G1 F7200
G1 X76.639 Y73.013 E-.01421
G1 X77.468 Y72.164 E-.28182
G1 X78.382 Y71.407 E-.28186
G1 X79.16 Y70.889 E-.22211
;WIPE_END
G1 X79.292 Y75.592 F9000
G1 E.8 F1800
G1 F1200
G1 X80.143 Y74.688 E.03893
G1 X81.479 Y73.764 E.05093
G1 X82.956 Y73.149 E.05016
G1 X83.71 Y72.965 E.02433
G1 X84.938 Y72.833 E.03872
G1 X135.719 Y72.882 E1.5922
G1 X136.554 Y73.02 E.02654
G1 X137.911 Y73.466 E.04479
G1 X139.391 Y74.318 E.05354
G1 X140.5 Y75.312 E.04669
G1 X141.477 Y76.637 E.05162
G1 X141.857 Y77.378 E.02611
G1 X142.345 Y78.869 E.04919
G1 X142.479 Y79.699 E.02636
G1 X142.521 Y139.557 E1.87681
G1 X142.385 Y140.94 E.04357
G1 X142.099 Y142.012 E.03479
G1 X141.568 Y143.206 E.04097
G1 X140.952 Y144.15 E.03534
G1 X139.861 Y145.308 E.04988
G1 X138.827 Y146.06 E.04009
G1 X138.138 Y146.43 E.02452
G1 X136.576 Y146.974 E.05186
G1 X134.914 Y147.171 E.05248
G1 X85.072 Y147.171 E1.56276
G1 X83.71 Y147.035 E.04292
G1 X82.65 Y146.753 E.03439
G1 X81.527 Y146.26 E.03845
G1 X80.512 Y145.612 E.03776
G1 X79.342 Y144.511 E.05037
G1 X78.59 Y143.477 E.04009
G1 X78.219 Y142.788 E.02454
G1 X77.676 Y141.225 E.05188
G1 X77.479 Y139.564 E.05244
G1 X77.479 Y80.443 E1.8537
G1 X77.615 Y79.06 E.04357
G1 X77.897 Y78 E.03439
G1 X78.39 Y76.877 E.03845
G1 X79.039 Y75.862 E.03777
G1 X79.251 Y75.636 E.00972
G1 X79.525 Y75.893 F9000
G1 F1200
G1 X80.382 Y74.98 E.03926
G1 X81.651 Y74.1 E.04842
G1 X83.056 Y73.513 E.04774
G1 X83.775 Y73.337 E.02321
G1 X84.957 Y73.21 E.03727
G1 X135.029 Y73.21 E1.56997
G1 X136.483 Y73.39 E.04594
G1 X137.767 Y73.815 E.04241
G1 X138.529 Y74.202 E.0268
G1 X139.726 Y75.076 E.04647
G1 X140.653 Y76.082 E.04289
G1 X141.157 Y76.837 E.02846
G1 X141.778 Y78.218 E.04748
G1 X142.103 Y79.732 E.04855
G1 X142.144 Y139.552 E1.87561
G1 X142.014 Y140.876 E.04171
G1 X141.744 Y141.884 E.03272
G1 X141.235 Y143.028 E.03926
G1 X140.657 Y143.915 E.03319
G1 X139.62 Y145.018 E.04747
G1 X138.626 Y145.741 E.03854
G1 X137.969 Y146.093 E.02337
G1 X136.482 Y146.609 E.04935
G1 X134.908 Y146.794 E.04969
G1 X85.088 Y146.794 E1.56207
G1 X83.775 Y146.664 E.04137
G1 X82.777 Y146.398 E.03238
G1 X81.702 Y145.926 E.03681
G1 X80.746 Y145.316 E.03556
G1 X79.632 Y144.27 E.04791
G1 X78.909 Y143.276 E.03854
G1 X78.556 Y142.618 E.02341
G1 X78.041 Y141.131 E.04934
G1 X77.856 Y139.558 E.04966
G1 X77.856 Y80.448 E1.85335
G1 X77.986 Y79.125 E.04168
G1 X78.252 Y78.127 E.03238
G1 X78.724 Y77.052 E.03681
G1 X79.335 Y76.096 E.03557
G1 X79.484 Y75.937 E.00683
G1 X79.758 Y76.194 F9000
G1 F1200
G1 X80.621 Y75.272 E.0396
G1 X81.824 Y74.435 E.04595
G1 X83.156 Y73.877 E.04528
G1 X83.84 Y73.708 E.02209
G1 X84.975 Y73.587 E.03579
G1 X135.023 Y73.587 E1.56922
G1 X136.391 Y73.756 E.04322
G1 X137.623 Y74.163 E.04068
G1 X138.332 Y74.523 E.02493
G1 X139.468 Y75.351 E.04408
G1 X140.358 Y76.316 E.04116
G1 X140.827 Y77.018 E.02647
G1 X141.422 Y78.344 E.04557
G1 X141.728 Y79.764 E.04555
G1 X141.767 Y139.547 E1.87445
G1 X141.642 Y140.81 E.03979
G1 X141.389 Y141.755 E.03067
G1 X140.902 Y142.85 E.03758
G1 X140.361 Y143.68 E.03106
G1 X139.379 Y144.729 E.04505
G1 X138.425 Y145.422 E.03697
G1 X137.8 Y145.756 E.02222
G1 X136.388 Y146.243 E.04683
G1 X134.902 Y146.417 E.04691
G1 X85.103 Y146.417 E1.56141
G1 X83.84 Y146.292 E.03979
G1 X82.905 Y146.043 E.03034
G1 X81.878 Y145.592 E.03517
G1 X80.979 Y145.019 E.03343
G1 X79.922 Y144.029 E.04541
G1 X79.228 Y143.075 E.03699
G1 X78.893 Y142.449 E.02226
G1 X78.406 Y141.038 E.0468
G1 X78.233 Y139.552 E.04691
G1 X78.233 Y80.453 E1.85301
G1 X78.358 Y79.19 E.03979
G1 X78.607 Y78.255 E.03034
G1 X79.058 Y77.228 E.03517
G1 X79.631 Y76.329 E.03343
G1 X79.717 Y76.237 E.00395
G1 X79.991 Y76.494 F9000
G1 F1200
G1 X80.875 Y75.551 E.04053
G1 X81.998 Y74.77 E.04289
G1 X83.256 Y74.24 E.0428
G1 X83.905 Y74.08 E.02096
G1 X84.993 Y73.963 E.03431
G1 X135.003 Y73.963 E1.56803
G1 X136.32 Y74.127 E.04161
G1 X137.478 Y74.512 E.03826
G1 X138.134 Y74.845 E.02307
G1 X139.21 Y75.626 E.04169
G1 X140.062 Y76.55 E.03941
G1 X140.496 Y77.2 E.02451
G1 X141.067 Y78.47 E.04366
G1 X141.352 Y79.796 E.04253
G1 X141.39 Y139.542 E1.87329
G1 X141.271 Y140.745 E.0379
G1 X141.035 Y141.627 E.02863
G1 X140.569 Y142.673 E.0359
G1 X140.065 Y143.446 E.02893
G1 X139.137 Y144.439 E.04261
G1 X138.224 Y145.102 E.03538
G1 X137.631 Y145.419 E.02108
G1 X136.295 Y145.878 E.04429
G1 X134.896 Y146.04 E.04416
G1 X85.108 Y146.04 E1.56107
G1 X83.905 Y145.921 E.0379
G1 X83.032 Y145.688 E.02833
G1 X82.053 Y145.258 E.03353
G1 X81.213 Y144.723 E.03123
G1 X80.211 Y143.787 E.04299
G1 X79.548 Y142.874 E.03538
G1 X79.231 Y142.281 E.02108
G1 X78.776 Y140.963 E.04372
G1 X78.61 Y139.546 E.04473
G1 X78.61 Y80.458 E1.85266
G1 X78.729 Y79.255 E.0379
G1 X78.962 Y78.382 E.02833
G1 X79.392 Y77.403 E.03353
G1 X79.927 Y76.563 E.03123
G1 X79.95 Y76.538 E.00107
G1 X80.224 Y76.796 F9000
G1 F1200
G1 X81.115 Y75.842 E.04093
G1 X82.171 Y75.105 E.04038
G1 X83.357 Y74.604 E.04037
G1 X83.97 Y74.451 E.01981
G1 X85.011 Y74.34 E.03282
G1 X135.51 Y74.376 E1.58336
G1 X136.228 Y74.493 E.02281
G1 X137.334 Y74.86 E.03654
G1 X138.473 Y75.515 E.0412
G1 X139.379 Y76.321 E.03802
G1 X140.165 Y77.381 E.04138
G1 X140.495 Y78.027 E.02274
G1 X140.875 Y79.205 E.03881
G1 X141.011 Y80.393 E.03749
G1 X141.013 Y139.537 E1.85442
G1 X140.899 Y140.68 E.03602
G1 X140.68 Y141.499 E.02658
G1 X140.237 Y142.495 E.03418
G1 X139.769 Y143.212 E.02685
G1 X138.895 Y144.149 E.04018
G1 X138.024 Y144.783 E.03378
G1 X137.463 Y145.081 E.01992
G1 X136.202 Y145.512 E.04178
G1 X134.891 Y145.663 E.04138
G1 X85.113 Y145.663 E1.56075
G1 X83.971 Y145.549 E.03598
G1 X83.159 Y145.333 E.02635
G1 X82.229 Y144.924 E.03185
G1 X81.446 Y144.426 E.0291
G1 X80.501 Y143.545 E.04051
G1 X79.867 Y142.674 E.03378
G1 X79.568 Y142.112 E.01996
G1 X79.142 Y140.87 E.04117
G1 X78.987 Y139.541 E.04195
G1 X78.987 Y80.463 E1.85235
G1 X79.101 Y79.321 E.03598
G1 X79.317 Y78.509 E.02635
G1 X79.726 Y77.579 E.03185
G1 X80.192 Y76.846 E.02723
G1 X80.509 Y77.048 F9000
G1 F1200
G1 X80.521 Y77.028 E.00073
G1 X81.355 Y76.133 E.03836
G1 X82.346 Y75.439 E.03793
G1 X83.458 Y74.967 E.03788
G1 X84.036 Y74.823 E.01868
G1 X85.028 Y74.717 E.03128
G1 X134.965 Y74.717 E1.56574
G1 X136.137 Y74.859 E.03702
G1 X137.189 Y75.208 E.03475
G1 X137.741 Y75.488 E.01941
G1 X138.695 Y76.177 E.0369
G1 X139.47 Y77.018 E.03586
G1 X139.834 Y77.562 E.02052
G1 X140.355 Y78.719 E.03979
G1 X140.6 Y79.862 E.03665
G1 X140.636 Y139.532 E1.87091
G1 X140.528 Y140.614 E.03409
G1 X140.325 Y141.371 E.02457
G1 X139.904 Y142.317 E.03247
G1 X139.473 Y142.979 E.02477
G1 X138.653 Y143.86 E.03774
G1 X137.823 Y144.463 E.03217
G1 X137.295 Y144.743 E.01874
G1 X136.111 Y145.147 E.03923
G1 X134.885 Y145.286 E.03869
G1 X85.118 Y145.286 E1.56041
G1 X84.036 Y145.178 E.03409
G1 X83.286 Y144.977 E.02435
G1 X82.404 Y144.59 E.0302
G1 X81.679 Y144.129 E.02694
G1 X80.79 Y143.303 E.03805
G1 X80.187 Y142.473 E.03217
G1 X79.906 Y141.945 E.01875
G1 X79.507 Y140.778 E.03867
G1 X79.364 Y139.535 E.03923
G1 X79.364 Y80.468 E1.852
G1 X79.472 Y79.386 E.03409
G1 X79.673 Y78.636 E.02435
G1 X80.06 Y77.754 E.0302
G1 X80.476 Y77.098 E.02436
G1 X80.794 Y77.3 F9000
G1 F1200
G1 X80.818 Y77.261 E.00144
G1 X81.596 Y76.424 E.03583
G1 X82.521 Y75.774 E.03545
G1 X83.56 Y75.33 E.03543
G1 X85.045 Y75.093 E.04715
G1 X135.409 Y75.124 E1.57913
G1 X136.046 Y75.225 E.02022
G1 X137.044 Y75.557 E.03298
G1 X138.016 Y76.115 E.03514
G1 X138.825 Y76.832 E.03389
G1 X139.503 Y77.743 E.03561
G1 X139.813 Y78.351 E.0214
G1 X140.138 Y79.364 E.03336
G1 X140.257 Y80.405 E.03285
G1 X140.259 Y139.527 E1.85373
G1 X140.156 Y140.548 E.03218
G1 X139.97 Y141.243 E.02256
G1 X139.572 Y142.138 E.03071
G1 X139.177 Y142.746 E.02273
G1 X138.41 Y143.572 E.03534
G1 X137.623 Y144.144 E.0305
G1 X137.128 Y144.405 E.01755
G1 X136.037 Y144.777 E.03614
G1 X134.879 Y144.909 E.03654
G1 X85.123 Y144.909 E1.56006
G1 X84.102 Y144.806 E.03218
G1 X83.412 Y144.622 E.02239
G1 X82.58 Y144.257 E.02849
G1 X81.911 Y143.832 E.02485
G1 X81.079 Y143.06 E.03559
G1 X80.507 Y142.273 E.0305
G1 X80.245 Y141.778 E.01756
G1 X79.873 Y140.685 E.0362
G1 X79.741 Y139.529 E.03648
G1 X79.741 Y80.473 E1.85166
G1 X79.844 Y79.452 E.03218
G1 X80.028 Y78.762 E.02239
G1 X80.393 Y77.93 E.02849
G1 X80.761 Y77.35 E.02154
G1 X81.079 Y77.551 F9000
G1 F1200
G1 X81.116 Y77.493 E.00216
G1 X81.837 Y76.714 E.03328
G1 X82.696 Y76.107 E.03298
G1 X83.663 Y75.693 E.03298
G1 X85.063 Y75.47 E.04445
G1 X134.928 Y75.47 E1.56348
G1 X135.956 Y75.591 E.03245
G1 X136.899 Y75.905 E.03116
G1 X137.789 Y76.416 E.03218
G1 X138.541 Y77.081 E.03148
G1 X139.172 Y77.925 E.03304
G1 X139.472 Y78.513 E.0207
G1 X139.771 Y79.452 E.0309
G1 X139.88 Y80.411 E.03026
G1 X139.882 Y139.522 E1.85338
G1 X139.785 Y140.482 E.03025
G1 X139.615 Y141.115 E.02055
G1 X139.239 Y141.96 E.029
G1 X138.88 Y142.513 E.02067
G1 X138.167 Y143.283 E.0329
G1 X136.961 Y144.067 E.0451
G1 X135.945 Y144.411 E.03363
G1 X134.874 Y144.532 E.03379
G1 X85.128 Y144.532 E1.55975
G1 X84.168 Y144.435 E.03025
G1 X83.539 Y144.267 E.02041
G1 X82.756 Y143.923 E.02682
G1 X82.143 Y143.534 E.02276
G1 X81.367 Y142.818 E.03311
G1 X80.583 Y141.611 E.04513
G1 X80.239 Y140.594 E.03366
G1 X80.118 Y139.524 E.03376
G1 X80.118 Y80.478 E1.85135
G1 X80.215 Y79.518 E.03025
G1 X80.383 Y78.889 E.02041
G1 X80.727 Y78.106 E.02682
G1 X81.046 Y77.602 E.0187
G1 X81.364 Y77.803 F9000
G1 F1200
G1 X81.414 Y77.724 E.00293
G1 X82.078 Y77.003 E.03073
G1 X82.873 Y76.441 E.03053
G1 X83.766 Y76.056 E.03049
G1 X85.08 Y75.847 E.04172
G1 X135.31 Y75.872 E1.57493
G1 X135.865 Y75.958 E.01761
G1 X136.753 Y76.253 E.02934
G1 X137.576 Y76.728 E.02979
G1 X138.27 Y77.343 E.02907
G1 X138.853 Y78.125 E.03058
G1 X139.123 Y78.655 E.01865
G1 X139.4 Y79.522 E.02854
G1 X139.503 Y80.428 E.02859
G1 X139.505 Y139.517 E1.85269
G1 X139.414 Y140.415 E.0283
G1 X139.26 Y140.988 E.0186
G1 X138.907 Y141.781 E.02722
G1 X138.582 Y142.281 E.0187
G1 X137.924 Y142.995 E.03044
G1 X136.795 Y143.728 E.04221
G1 X135.854 Y144.045 E.03113
G1 X134.868 Y144.155 E.03111
G1 X85.133 Y144.155 E1.55941
G1 X84.235 Y144.064 E.0283
G1 X83.665 Y143.911 E.0185
G1 X82.932 Y143.589 E.0251
G1 X82.374 Y143.236 E.0207
G1 X81.656 Y142.575 E.0306
G1 X80.922 Y141.445 E.04225
G1 X80.605 Y140.503 E.03116
G1 X80.495 Y139.518 E.03108
G1 X80.495 Y80.483 E1.851
G1 X80.586 Y79.585 E.0283
G1 X80.739 Y79.015 E.0185
G1 X81.061 Y78.282 E.0251
G1 X81.332 Y77.854 E.01588
G1 X81.672 Y78.031 F9000
G1 F1200
G1 X81.712 Y77.955 E.00269
G1 X82.321 Y77.292 E.02823
G1 X83.049 Y76.774 E.02801
G1 X83.87 Y76.419 E.02805
G1 X85.096 Y76.224 E.03892
G1 X134.894 Y76.223 E1.56138
G1 X135.776 Y76.324 E.02784
G1 X136.591 Y76.593 E.02691
G1 X137.349 Y77.029 E.02742
G1 X137.999 Y77.606 E.02725
G1 X138.532 Y78.324 E.02804
G1 X138.774 Y78.798 E.01669
G1 X139.033 Y79.609 E.02669
G1 X139.126 Y80.445 E.02637
G1 X139.128 Y139.512 E1.852
G1 X139.042 Y140.348 E.02635
G1 X138.905 Y140.861 E.01665
G1 X138.575 Y141.603 E.02546
G1 X138.285 Y142.049 E.01668
G1 X137.681 Y142.706 E.02798
G1 X136.63 Y143.389 E.0393
G1 X135.763 Y143.678 E.02865
G1 X134.863 Y143.778 E.02839
G1 X85.138 Y143.778 E1.55909
G1 X84.302 Y143.692 E.02635
G1 X83.791 Y143.556 E.01658
G1 X82.605 Y142.938 E.04193
G1 X81.944 Y142.331 E.02814
G1 X81.261 Y141.28 E.0393
G1 X80.972 Y140.414 E.02862
G1 X80.872 Y139.513 E.02842
G1 X80.872 Y80.488 E1.85069
G1 X80.958 Y79.652 E.02635
G1 X81.094 Y79.141 E.01658
G1 X81.645 Y78.084 E.03737
G1 X81.975 Y78.256 F9000
G1 F1200
G1 X82.011 Y78.185 E.0025
G1 X82.564 Y77.581 E.02568
G1 X83.227 Y77.107 E.02555
G1 X83.975 Y76.781 E.02558
G1 X85.112 Y76.6 E.0361
G1 X134.888 Y76.6 E1.56069
G1 X135.688 Y76.691 E.02525
G1 X136.446 Y76.942 E.02504
G1 X137.135 Y77.34 E.02495
G1 X137.727 Y77.867 E.02485
G1 X138.425 Y78.941 E.04016
G1 X138.666 Y79.697 E.02488
G1 X138.75 Y80.461 E.0241
G1 X138.75 Y139.507 E1.85135
G1 X138.55 Y140.734 E.03898
G1 X137.987 Y141.818 E.0383
G1 X137.437 Y142.418 E.02552
G1 X136.465 Y143.05 E.03635
G1 X135.691 Y143.308 E.02558
G1 X134.857 Y143.4 E.02631
G1 X85.143 Y143.4 E1.55875
G1 X83.917 Y143.2 E.03895
G1 X82.835 Y142.639 E.03821
G1 X82.232 Y142.087 E.02563
G1 X81.6 Y141.115 E.03635
G1 X81.342 Y140.342 E.02555
G1 X81.25 Y139.507 E.02634
G1 X81.25 Y80.493 E1.85034
G1 X81.45 Y79.267 E.03895
G1 X81.947 Y78.309 E.03384
G1 X82.277 Y78.479 F9000
G1 F1200
G1 X82.311 Y78.414 E.0023
G1 X82.807 Y77.869 E.02311
G1 X83.406 Y77.439 E.02312
G1 X84.08 Y77.143 E.02308
G1 X85.127 Y76.977 E.03324
G1 X134.872 Y76.977 E1.55972
G1 X135.6 Y77.058 E.02297
G1 X136.284 Y77.282 E.02257
G1 X136.922 Y77.65 E.02309
G1 X137.455 Y78.128 E.02245
G1 X138.076 Y79.085 E.03577
G1 X138.296 Y79.767 E.02247
G1 X138.373 Y80.478 E.02242
G1 X138.373 Y139.502 E1.85066
G1 X138.194 Y140.607 E.0351
G1 X137.688 Y141.587 E.03458
G1 X137.193 Y142.131 E.02306
G1 X136.301 Y142.71 E.03334
G1 X135.602 Y142.942 E.02309
G1 X134.852 Y143.023 E.02365
G1 X85.148 Y143.023 E1.55843
G1 X84.043 Y142.844 E.0351
G1 X83.064 Y142.339 E.03454
G1 X82.519 Y141.843 E.02311
G1 X81.94 Y140.951 E.03334
G1 X81.708 Y140.252 E.02309
